SVG_Azure_Grouped/Management/Workbook.svg

<?xml version="1.0" encoding="UTF-8" standalone="no"?>
<!-- Generated by Microsoft Visio, SVG Export Workbook.svg Page-1 -->

<svg
   xmlns:dc="http://purl.org/dc/elements/1.1/"
   xmlns:cc="http://creativecommons.org/ns#"
   xmlns:rdf="http://www.w3.org/1999/02/22-rdf-syntax-ns#"
   xmlns:svg="http://www.w3.org/2000/svg"
   xmlns="http://www.w3.org/2000/svg"
   xmlns:sodipodi="http://sodipodi.sourceforge.net/DTD/sodipodi-0.dtd"
   xmlns:inkscape="http://www.inkscape.org/namespaces/inkscape"
   width="0.74797189in"
   height="0.78737235in"
   viewBox="0 0 53.854073 56.691097"
   xml:space="preserve"
   class="st9"
   version="1.1"
   id="svg64"
   sodipodi:docname="Workbook.svg"
   style="font-size:12px;overflow:visible;color-interpolation-filters:sRGB;fill:none;fill-rule:evenodd;stroke-linecap:square;stroke-miterlimit:3"
   inkscape:version="0.92.5 (2060ec1f9f, 2020-04-08)"><metadata
   id="metadata70"><rdf:RDF><cc:Work
       rdf:about=""><dc:format>image/svg+xml</dc:format><dc:type
         rdf:resource="http://purl.org/dc/dcmitype/StillImage" /></cc:Work></rdf:RDF></metadata><defs
   id="defs68" /><sodipodi:namedview
   pagecolor="#ffffff"
   bordercolor="#666666"
   borderopacity="1"
   objecttolerance="10"
   gridtolerance="10"
   guidetolerance="10"
   inkscape:pageopacity="0"
   inkscape:pageshadow="2"
   inkscape:window-width="640"
   inkscape:window-height="480"
   id="namedview66"
   showgrid="false"
   inkscape:zoom="1.7193066"
   inkscape:cx="35.905348"
   inkscape:cy="23.279613"
   inkscape:window-x="0"
   inkscape:window-y="0"
   inkscape:window-maximized="0"
   inkscape:current-layer="svg64" />
	<style
   type="text/css"
   id="style2">
	<![CDATA[
		.st1 {fill:#fcd116;stroke:none;stroke-linecap:butt;stroke-width:12.24}
		.st2 {fill:#68217a;fill-opacity:0.4;stroke:none;stroke-linecap:butt;stroke-width:12.24}
		.st3 {fill:#ffffff;fill-opacity:0.75;stroke:none;stroke-linecap:butt;stroke-width:12.24}
		.st4 {fill:#ffffff;fill-opacity:0.8;stroke:none;stroke-linecap:butt;stroke-width:12.24}
		.st5 {fill:#ffffff;fill-opacity:0.098;stroke:none;stroke-linecap:butt;stroke-width:12.24}
		.st6 {fill:#ffffff;stroke:none;stroke-linecap:butt;stroke-width:12.24}
		.st7 {fill:#000000;stroke:none;stroke-linecap:butt;stroke-width:12.24}
		.st8 {fill:#000000;fill-opacity:0.5;stroke:none;stroke-linecap:butt;stroke-width:12.24}
		.st9 {fill:none;fill-rule:evenodd;font-size:12px;overflow:visible;stroke-linecap:square;stroke-miterlimit:3}
	]]>
	</style>

	<g
   id="g62"
   transform="translate(-12.240131,-12.2432)">
		<title
   id="title4">Page-1</title>
		<g
   id="group11919-1"
   transform="translate(12.24,-34.0157)">
			<title
   id="title6">Workbook.11919</title>
			<g
   id="group11920-2">
				<title
   id="title8">g24</title>
				<g
   id="shape11921-3"
   transform="translate(5.98425,-1.1811)">
					<title
   id="title10">path4</title>
					<path
   d="M 8.38,47.44 C 4.79,47.44 0,50.98 0,50.98 h 2.39 v 49.61 h 41.89 v 2.36 l 3.59,-3.54 V 47.44 Z"
   class="st1"
   id="path12"
   inkscape:connector-curvature="0"
   style="fill:#fcd116;stroke:none;stroke-width:12.23999977;stroke-linecap:butt" />
				</g>
				<g
   id="shape11922-5"
   transform="translate(5.98425,-1.1811)">
					<title
   id="title15">path6</title>
					<path
   d="M 8.38,47.44 C 4.79,47.44 0,50.98 0,50.98 h 2.39 v 49.61 h 41.89 v 2.36 l 3.59,-3.54 V 47.44 Z"
   class="st2"
   id="path17"
   inkscape:connector-curvature="0"
   style="fill:#68217a;fill-opacity:0.4;stroke:none;stroke-width:12.23999977;stroke-linecap:butt" />
				</g>
				<g
   id="shape11923-7"
   transform="translate(8.37795,-2.3622)">
					<title
   id="title20">path8</title>
					<path
   d="M 7.18,49.8 C 5.39,49.8 0,52.16 0,52.16 h 1.2 v 50.79 h 40.69 l 2.39,-2.36 V 49.8 Z"
   class="st3"
   id="path22"
   inkscape:connector-curvature="0"
   style="fill:#ffffff;fill-opacity:0.75;stroke:none;stroke-width:12.23999977;stroke-linecap:butt" />
				</g>
				<g
   id="shape11924-9"
   transform="translate(9.5748,-53.1496)">
					<title
   id="title25">path10</title>
					<path
   d="m 5.98,100.59 c -2.39,0 -5.98,2.36 -5.98,2.36 h 40.69 l 2.4,-2.36 z"
   class="st4"
   id="path27"
   inkscape:connector-curvature="0"
   style="fill:#ffffff;fill-opacity:0.8;stroke:none;stroke-width:12.23999977;stroke-linecap:butt" />
				</g>
				<g
   id="shape11925-11"
   transform="translate(4.7874)">
					<title
   id="title30">path12</title>
					<path
   d="m 0,102.95 v -3.54 h 2.39 l 1.2,-1.19 V 97.04 L 2.39,95.86 H 0 v -3.54 h 2.39 l 1.2,-1.18 V 89.96 L 2.39,88.78 H 0 v -3.55 h 2.39 l 1.2,-1.18 V 82.87 L 2.39,81.69 H 0 v -3.54 h 2.39 l 1.2,-1.19 V 75.78 L 2.39,74.6 H 0 v -3.54 h 2.39 l 1.2,-1.18 V 68.7 L 2.39,67.52 H 0 v -3.55 h 2.39 l 1.2,-1.18 V 61.61 L 2.39,60.43 H 0 V 56.89 H 2.39 L 3.59,55.7 V 54.52 L 2.39,53.34 H 0 V 49.8 h 45.48 v 53.15 z"
   class="st1"
   id="path32"
   inkscape:connector-curvature="0"
   style="fill:#fcd116;stroke:none;stroke-width:12.23999977;stroke-linecap:butt" />
				</g>
				<g
   id="shape11926-13"
   transform="translate(4.7874)">
					<title
   id="title35">path14</title>
					<path
   d="m 0,102.95 v -3.54 h 2.39 l 1.2,-1.19 V 97.04 L 2.39,95.86 H 0 v -3.54 h 2.39 l 1.2,-1.18 V 89.96 L 2.39,88.78 H 0 v -3.55 h 2.39 l 1.2,-1.18 V 82.87 L 2.39,81.69 H 0 v -3.54 h 2.39 l 1.2,-1.19 V 75.78 L 2.39,74.6 H 0 v -3.54 h 2.39 l 1.2,-1.18 V 68.7 L 2.39,67.52 H 0 v -3.55 h 2.39 l 1.2,-1.18 V 61.61 L 2.39,60.43 H 0 V 56.89 H 2.39 L 3.59,55.7 V 54.52 L 2.39,53.34 H 0 V 49.8 h 45.48 v 53.15 z"
   class="st2"
   id="path37"
   inkscape:connector-curvature="0"
   style="fill:#68217a;fill-opacity:0.4;stroke:none;stroke-width:12.23999977;stroke-linecap:butt" />
				</g>
				<g
   id="shape11927-15"
   transform="translate(4.7874)">
					<title
   id="title40">path16</title>
					<path
   d="m 0,102.95 v -3.54 h 2.39 l 1.2,-1.19 V 97.04 L 2.39,95.86 H 0 v -3.54 h 2.39 l 1.2,-1.18 V 89.96 L 2.39,88.78 H 0 v -3.55 h 2.39 l 1.2,-1.18 V 82.87 L 2.39,81.69 H 0 v -3.54 h 2.39 l 1.2,-1.19 V 75.78 L 2.39,74.6 H 0 v -3.54 h 2.39 l 1.2,-1.18 V 68.7 L 2.39,67.52 H 0 v -3.55 h 2.39 l 1.2,-1.18 V 61.61 L 2.39,60.43 H 0 V 56.89 H 2.39 L 3.59,55.7 V 54.52 L 2.39,53.34 H 0 V 49.8 H 37.1 L 8.38,102.95 Z"
   class="st5"
   id="path42"
   inkscape:connector-curvature="0"
   style="fill:#ffffff;fill-opacity:0.09800002;stroke:none;stroke-width:12.23999977;stroke-linecap:butt" />
				</g>
				<g
   id="shape11928-17"
   transform="translate(20.3465,-30.7087)">
					<title
   id="title45">path18</title>
					<rect
   x="0"
   y="95.862"
   width="19.149599"
   height="7.0866098"
   class="st6"
   id="rect47"
   style="fill:#ffffff;stroke:none;stroke-width:12.23999977;stroke-linecap:butt" />
				</g>
				<g
   id="shape11929-19"
   transform="translate(0,-4.72441)">
					<title
   id="title50">path20</title>
					<path
   d="m 0,59.25 h 5.98 v 1.18 H 0 Z m 0,7.08 h 5.98 v 1.19 H 0 Z m 0,7.09 H 5.98 V 74.6 H 0 Z m 0,7.09 h 5.98 v 1.18 H 0 Z m 0,7.08 h 5.98 v 1.19 H 0 Z m 0,7.09 h 5.98 v 1.18 H 0 Z m 0,7.09 h 5.98 v 1.18 H 0 Z"
   class="st7"
   id="path52"
   inkscape:connector-curvature="0"
   style="fill:#000000;stroke:none;stroke-width:12.23999977;stroke-linecap:butt" />
				</g>
				<g
   id="shape11930-21"
   transform="translate(0,-5.90551)">
					<title
   id="title55">path22</title>
					<path
   d="m 1.8,56.89 h 2.99 v 1.18 H 1.8 Z m -1.2,1.18 h 1.2 v 1.18 H 0.6 Z M 0,59.25 h 1.2 v 1.18 H 0 Z m 1.8,4.72 h 2.99 v 1.18 H 1.8 Z m -1.2,1.18 h 1.2 v 1.18 H 0.6 Z M 0,66.33 h 1.2 v 1.19 H 0 Z m 1.8,4.73 h 2.99 v 1.18 H 1.8 Z m -1.2,1.18 h 1.2 v 1.18 H 0.6 Z M 0,73.42 H 1.2 V 74.6 H 0 Z m 1.8,4.73 h 2.99 v 1.18 H 1.8 Z m -1.2,1.18 h 1.2 v 1.18 H 0.6 Z M 0,80.51 h 1.2 v 1.18 H 0 Z m 1.8,4.72 h 2.99 v 1.18 H 1.8 Z m -1.2,1.18 h 1.2 v 1.18 H 0.6 Z M 0,87.59 h 1.2 v 1.19 H 0 Z m 1.8,4.73 H 4.79 V 93.5 H 1.8 Z M 0.6,93.5 h 1.2 v 1.18 H 0.6 Z M 0,94.68 h 1.2 v 1.18 H 0 Z m 1.8,4.73 h 2.99 v 1.18 H 1.8 Z m -1.2,1.18 h 1.2 v 1.18 H 0.6 Z M 0,101.77 h 1.2 v 1.18 H 0 Z"
   class="st8"
   id="path57"
   inkscape:connector-curvature="0"
   style="fill:#000000;fill-opacity:0.5;stroke:none;stroke-width:12.23999977;stroke-linecap:butt" />
				</g>
			</g>
		</g>
	</g>
</svg>

<?xml version="1.0" encoding="UTF-8" standalone="no"?>
<!DOCTYPE svg PUBLIC "-//W3C//DTD SVG 1.1//EN" "http://www.w3.org/Graphics/SVG/1.1/DTD/svg11.dtd">
<!-- Generated by Microsoft Visio, SVG Export Workbook.svg Page-1 -->
<svg xmlns="http://www.w3.org/2000/svg" xmlns:xlink="http://www.w3.org/1999/xlink" xmlns:ev="http://www.w3.org/2001/xml-events"
		width="1.08803in" height="1.42984in" viewBox="0 0 78.3383 102.949" xml:space="preserve" color-interpolation-filters="sRGB"
		class="st9">
	<style type="text/css">
	<![CDATA[
		.st1 {fill:#fcd116;stroke:none;stroke-linecap:butt;stroke-width:12.24}
		.st2 {fill:#68217a;fill-opacity:0.4;stroke:none;stroke-linecap:butt;stroke-width:12.24}
		.st3 {fill:#ffffff;fill-opacity:0.75;stroke:none;stroke-linecap:butt;stroke-width:12.24}
		.st4 {fill:#ffffff;fill-opacity:0.8;stroke:none;stroke-linecap:butt;stroke-width:12.24}
		.st5 {fill:#ffffff;fill-opacity:0.098;stroke:none;stroke-linecap:butt;stroke-width:12.24}
		.st6 {fill:#ffffff;stroke:none;stroke-linecap:butt;stroke-width:12.24}
		.st7 {fill:#000000;stroke:none;stroke-linecap:butt;stroke-width:12.24}
		.st8 {fill:#000000;fill-opacity:0.5;stroke:none;stroke-linecap:butt;stroke-width:12.24}
		.st9 {fill:none;fill-rule:evenodd;font-size:12px;overflow:visible;stroke-linecap:square;stroke-miterlimit:3}
	]]>
	</style>

	<g>
		<title>Page-1</title>
		<g id="group11640-1" transform="translate(12.24,-34.0157)">
			<title>Workbook.11640</title>
			<g id="group11641-2">
				<title>g24</title>
				<g id="shape11642-3" transform="translate(5.98425,-1.1811)">
					<title>path4</title>
					<path d="M8.38 47.44 C4.79 47.44 0 50.98 0 50.98 L2.39 50.98 L2.39 100.59 L44.28 100.59 L44.28 102.95 L47.87
								 99.41 L47.87 47.44 L8.38 47.44 Z" class="st1"/>
				</g>
				<g id="shape11643-5" transform="translate(5.98425,-1.1811)">
					<title>path6</title>
					<path d="M8.38 47.44 C4.79 47.44 0 50.98 0 50.98 L2.39 50.98 L2.39 100.59 L44.28 100.59 L44.28 102.95 L47.87
								 99.41 L47.87 47.44 L8.38 47.44 Z" class="st2"/>
				</g>
				<g id="shape11644-7" transform="translate(8.37795,-2.3622)">
					<title>path8</title>
					<path d="M7.18 49.8 C5.39 49.8 0 52.16 0 52.16 L1.2 52.16 L1.2 102.95 L41.89 102.95 L44.28 100.59 L44.28 49.8
								 L7.18 49.8 Z" class="st3"/>
				</g>
				<g id="shape11645-9" transform="translate(9.5748,-53.1496)">
					<title>path10</title>
					<path d="M5.98 100.59 C3.59 100.59 0 102.95 0 102.95 L40.69 102.95 L43.09 100.59 L5.98 100.59 Z" class="st4"/>
				</g>
				<g id="shape11646-11" transform="translate(4.7874,1.42109E-14)">
					<title>path12</title>
					<path d="M0 102.95 L0 99.41 L2.39 99.41 L3.59 98.22 L3.59 97.04 L2.39 95.86 L0 95.86 L0 92.32 L2.39 92.32 L3.59
								 91.14 L3.59 89.96 L2.39 88.78 L0 88.78 L0 85.23 L2.39 85.23 L3.59 84.05 L3.59 82.87 L2.39 81.69
								 L0 81.69 L0 78.15 L2.39 78.15 L3.59 76.96 L3.59 75.78 L2.39 74.6 L0 74.6 L0 71.06 L2.39 71.06 L3.59
								 69.88 L3.59 68.7 L2.39 67.52 L0 67.52 L0 63.97 L2.39 63.97 L3.59 62.79 L3.59 61.61 L2.39 60.43 L0
								 60.43 L0 56.89 L2.39 56.89 L3.59 55.7 L3.59 54.52 L2.39 53.34 L0 53.34 L0 49.8 L45.48 49.8 L45.48
								 102.95 L0 102.95 Z" class="st1"/>
				</g>
				<g id="shape11647-13" transform="translate(4.7874,1.42109E-14)">
					<title>path14</title>
					<path d="M0 102.95 L0 99.41 L2.39 99.41 L3.59 98.22 L3.59 97.04 L2.39 95.86 L0 95.86 L0 92.32 L2.39 92.32 L3.59
								 91.14 L3.59 89.96 L2.39 88.78 L0 88.78 L0 85.23 L2.39 85.23 L3.59 84.05 L3.59 82.87 L2.39 81.69
								 L0 81.69 L0 78.15 L2.39 78.15 L3.59 76.96 L3.59 75.78 L2.39 74.6 L0 74.6 L0 71.06 L2.39 71.06 L3.59
								 69.88 L3.59 68.7 L2.39 67.52 L0 67.52 L0 63.97 L2.39 63.97 L3.59 62.79 L3.59 61.61 L2.39 60.43 L0
								 60.43 L0 56.89 L2.39 56.89 L3.59 55.7 L3.59 54.52 L2.39 53.34 L0 53.34 L0 49.8 L45.48 49.8 L45.48
								 102.95 L0 102.95 Z" class="st2"/>
				</g>
				<g id="shape11648-15" transform="translate(4.7874,1.42109E-14)">
					<title>path16</title>
					<path d="M0 102.95 L0 99.41 L2.39 99.41 L3.59 98.22 L3.59 97.04 L2.39 95.86 L0 95.86 L0 92.32 L2.39 92.32 L3.59
								 91.14 L3.59 89.96 L2.39 88.78 L0 88.78 L0 85.23 L2.39 85.23 L3.59 84.05 L3.59 82.87 L2.39 81.69
								 L0 81.69 L0 78.15 L2.39 78.15 L3.59 76.96 L3.59 75.78 L2.39 74.6 L0 74.6 L0 71.06 L2.39 71.06 L3.59
								 69.88 L3.59 68.7 L2.39 67.52 L0 67.52 L0 63.97 L2.39 63.97 L3.59 62.79 L3.59 61.61 L2.39 60.43 L0
								 60.43 L0 56.89 L2.39 56.89 L3.59 55.7 L3.59 54.52 L2.39 53.34 L0 53.34 L0 49.8 L37.1 49.8 L8.38
								 102.95 L0 102.95 Z" class="st5"/>
				</g>
				<g id="shape11649-17" transform="translate(20.3465,-30.7087)">
					<title>path18</title>
					<rect x="0" y="95.862" width="19.1496" height="7.08661" class="st6"/>
				</g>
				<g id="shape11650-19" transform="translate(5.29576E-14,-4.72441)">
					<title>path20</title>
					<path d="M0 59.25 L5.98 59.25 L5.98 60.43 L0 60.43 L0 59.25 ZM0 66.33 L5.98 66.33 L5.98 67.52 L0 67.52 L0 66.33
								 ZM0 73.42 L5.98 73.42 L5.98 74.6 L0 74.6 L0 73.42 ZM0 80.51 L5.98 80.51 L5.98 81.69 L0 81.69 L0
								 80.51 ZM0 87.59 L5.98 87.59 L5.98 88.78 L0 88.78 L0 87.59 ZM0 94.68 L5.98 94.68 L5.98 95.86 L0 95.86
								 L0 94.68 ZM0 101.77 L5.98 101.77 L5.98 102.95 L0 102.95 L0 101.77 Z" class="st7"/>
				</g>
				<g id="shape11651-21" transform="translate(-2.69784E-14,-5.90551)">
					<title>path22</title>
					<path d="M1.8 56.89 L4.79 56.89 L4.79 58.07 L1.8 58.07 L1.8 56.89 ZM0.6 58.07 L1.8 58.07 L1.8 59.25 L0.6 59.25
								 L0.6 58.07 ZM0 59.25 L1.2 59.25 L1.2 60.43 L0 60.43 L0 59.25 ZM1.8 63.97 L4.79 63.97 L4.79 65.15
								 L1.8 65.15 L1.8 63.97 ZM0.6 65.15 L1.8 65.15 L1.8 66.33 L0.6 66.33 L0.6 65.15 ZM0 66.33 L1.2 66.33
								 L1.2 67.52 L0 67.52 L0 66.33 ZM1.8 71.06 L4.79 71.06 L4.79 72.24 L1.8 72.24 L1.8 71.06 ZM0.6 72.24
								 L1.8 72.24 L1.8 73.42 L0.6 73.42 L0.6 72.24 ZM0 73.42 L1.2 73.42 L1.2 74.6 L0 74.6 L0 73.42 ZM1.8
								 78.15 L4.79 78.15 L4.79 79.33 L1.8 79.33 L1.8 78.15 ZM0.6 79.33 L1.8 79.33 L1.8 80.51 L0.6 80.51
								 L0.6 79.33 ZM0 80.51 L1.2 80.51 L1.2 81.69 L0 81.69 L0 80.51 ZM1.8 85.23 L4.79 85.23 L4.79 86.41
								 L1.8 86.41 L1.8 85.23 ZM0.6 86.41 L1.8 86.41 L1.8 87.59 L0.6 87.59 L0.6 86.41 ZM0 87.59 L1.2 87.59
								 L1.2 88.78 L0 88.78 L0 87.59 ZM1.8 92.32 L4.79 92.32 L4.79 93.5 L1.8 93.5 L1.8 92.32 ZM0.6 93.5
								 L1.8 93.5 L1.8 94.68 L0.6 94.68 L0.6 93.5 ZM0 94.68 L1.2 94.68 L1.2 95.86 L0 95.86 L0 94.68 ZM1.8
								 99.41 L4.79 99.41 L4.79 100.59 L1.8 100.59 L1.8 99.41 ZM0.6 100.59 L1.8 100.59 L1.8 101.77 L0.6
								 101.77 L0.6 100.59 ZM0 101.77 L1.2 101.77 L1.2 102.95 L0 102.95 L0 101.77 Z" class="st8"/>
				</g>
			</g>
		</g>
	</g>
</svg>
